X: 30
M: 6/8
L: 1/8
K: A
V: 1
|:\
aec AEC | A,DE F2E | cde fga | BcA {A}B2E |\
aec AEC | A,DE F2E | cde fga | EAG A3 :|
|:\
cde aAc | Bcd bBd | ced cBA | BEE E3 |\
cde aAc | Bcd bBd | ceA EAG | AA,A, A,3 :|
M: 6/8
K: Am
[| "Mineur"\
aec AEC | A,DE F2A | ABc BcA | ^G2^F ^G2E |\
aec AEC | A,DE F2E | ABc BcA | BA^G A3 |]
[|\
cde edc | B2A B2G | Bcd {d}cBA | ^G2^F ^G2E |\
V: 2 clef=bass middle=d
|:\
a3- a3 | A3-A3 | a3 d3 | e3- e3 | A3 A3 |
a3- a3 | A3 d3 | e3 A3 :||: a3 A3 | g3 e3 |
a3 A3 | e3 E3 | A3 a3 | g3 e3 | a2c e2E | A3- A3 :|
M: 6/8
K: Am
[| "Mineur"\
a3- a3 | A3- A3 | c3 def | e2B E3 | A3- A3 |
a3- a3 | c2A e2f | d2e A3 |]\
[| a3 ^f3 | g2d G3 | d3 f3 |
e2B E3 | c2A d2f | e3 E3 | c2A d2e | aec A3 |]


